X: 258
T:Marianne
M:6/8
L:1/4
Q:80
C:trad
R:Cercle
O:France
A:Bearn
Z:S. Piron
K:C
G|c2d ede|gag efe|dcd c2 G|
|:c2 d ede|gag efe|1dcd e2G:|2dcd c2G|
|:c2 d ede|gag efe|1dcd e2G:|2dcd c2G|
|:c2d ede|gag e2d|c2d ede|1gag e2 G:|2gag ede|
|:f3 ede|f3e2d|cdc BAG|cdc BAG|c2d ede|gag efe|1dcd cde:|2dcd c2 G||
W:
W: From "Falaleiro" http://home.t-online.de/home/pheld/homepage.htm
